Newaita-dark/apps/22/com.github.kjlaw89.archetype.svg

<svg height="22pt" viewBox="0 0 22 22" width="22pt" xmlns="http://www.w3.org/2000/svg" xmlns:xlink="http://www.w3.org/1999/xlink"><linearGradient id="a" gradientUnits="userSpaceOnUse" x1="10.9151146" x2="10.9151146" y1="19.27333515" y2="20.18292834324"><stop offset="0" stop-opacity=".27451"/><stop offset="1" stop-opacity="0"/></linearGradient><linearGradient id="b"><stop offset="0" stop-opacity=".313725"/><stop offset=".222222" stop-opacity=".27451"/><stop offset="1" stop-opacity="0"/></linearGradient><radialGradient id="c" cx="450.90894" cy="189.57936" gradientTransform="matrix(.00000012 -.0537161 -.0966889 -.00000007 36.749413 43.721792)" gradientUnits="userSpaceOnUse" r="21.166656" xlink:href="#b"/><radialGradient id="d" cx="450.90894" cy="189.57936" gradientTransform="matrix(-.00000012 .0537161 .0966889 .00000007 -14.919203 -5.175142)" gradientUnits="userSpaceOnUse" r="21.166656" xlink:href="#b"/><radialGradient id="e" cx="450.90894" cy="189.57936" gradientTransform="matrix(-.00000012 -.0537161 .0966889 -.00000007 -14.919203 43.721792)" gradientUnits="userSpaceOnUse" r="21.166656" xlink:href="#b"/><radialGradient id="f" cx="450.90894" cy="189.57936" gradientTransform="matrix(.00000012 .0537161 -.0966889 .00000007 36.749411 -5.175143)" gradientUnits="userSpaceOnUse" r="21.166656" xlink:href="#b"/><linearGradient id="g"><stop offset="0" stop-color="#7e57c2"/><stop offset="1" stop-color="#9575cd"/></linearGradient><linearGradient id="h" gradientTransform="matrix(.0518029 0 0 .149471 -4.024634 23.128427)" gradientUnits="userSpaceOnUse" x1="306.91666" x2="305.95456" xlink:href="#g" y1="-25.791676" y2="-135.32916"/><linearGradient id="i" gradientTransform="matrix(4.556143 0 0 13.146184 -353.97266 2034.1802)" gradientUnits="userSpaceOnUse" x1="306.91666" x2="305.95456" xlink:href="#g" y1="-25.791676" y2="-135.32916"/><linearGradient id="j" gradientUnits="userSpaceOnUse" x1="333.37491475" x2="333.37491475" y1="-121.04159841667" y2="-89.29164325"><stop offset="0" stop-color="#66bb6a"/><stop offset="1" stop-color="#81c784"/></linearGradient><linearGradient id="k" gradientUnits="userSpaceOnUse" x1="386.29150925" x2="386.29150925" y1="-121.04167558333" y2="-89.29163575"><stop offset="0" stop-color="#ffd54f"/><stop offset="1" stop-color="#ffe082"/></linearGradient><linearGradient id="l" gradientUnits="userSpaceOnUse" x1="439.2083" x2="439.2083" y1="-121.0416835" y2="-89.291686"><stop offset="0" stop-color="#e57373"/><stop offset="1" stop-color="#ef9a9a"/></linearGradient><linearGradient id="m" gradientUnits="userSpaceOnUse" x1="10.9151166" x2="10.9151166" y1="16.99935281149" y2="7.90342199635"><stop offset="0" stop-color="#bdbdbd"/><stop offset="1" stop-color="#e0e0e0"/></linearGradient><path d="m3.183594 19.273438h15.464844v.910156h-15.464844zm0 0" fill="url(#a)"/><path d="m18.648438 19.273438h1.816406v-.910157h-1.816406zm0 0" fill="url(#c)"/><path d="m3.183594 19.273438h-1.820313v.910156h1.820313zm0 0" fill="url(#d)"/><path d="m3.183594 19.273438h-1.820313v-.910157h1.820313zm0 0" fill="url(#e)"/><path d="m18.648438 19.273438h1.816406v.910156h-1.816406zm0 0" fill="url(#f)"/><path d="m2.273438 2.902344h17.28125c.503906 0 .910156.40625.910156.90625v14.554687c0 .503907-.40625.910157-.910156.910157h-17.28125c-.5 0-.910157-.40625-.910157-.910157v-14.554687c0-.5.410157-.90625.910157-.90625zm0 0" fill="url(#h)"/><path d="m1.363281 6.539062h19.101563v.453126h-19.101563zm0 0" fill="#0a0d0e" fill-opacity=".235294"/><path d="m2.273438 19.28125c-.503907 0-.910157-.40625-.910157-.910156v-.234375c0 .503906.40625.910156.910157.910156h17.28125c.503906 0 .910156-.40625.910156-.910156v.234375c0 .503906-.40625.910156-.910156.910156zm0 0" fill-opacity=".235294"/><path d="m199.952275 255.265534c-44.319318 0-80.049622 35.386742-80.049622 79.706061v240.148867h1680.011385v-240.148867c0-44.319319-35.730304-79.706061-80.049622-79.706061zm0 0" fill="url(#i)" stroke="#212121" stroke-linecap="round" stroke-width="11.338583" transform="scale(.0113699)"/><path d="m2.273438 2.953125c-.503907 0-.910157.40625-.910157.910156v.234375c0-.503906.40625-.90625.910157-.90625h17.28125c.503906 0 .910156.402344.910156.90625v-.234375c0-.503906-.40625-.910156-.910156-.910156zm0 0" fill="#fff" fill-opacity=".392157"/><path d="m2.273438 2.835938c-.539063 0-.972657.4375-.972657.972656v14.554687c0 .539063.433594.972657.972657.972657h17.28125c.539062 0 .976562-.433594.976562-.972657v-14.554687c0-.535156-.4375-.972656-.976562-.972656zm0 .128906h17.28125c.472656 0 .847656.375.847656.84375v14.554687c0 .46875-.375.84375-.847656.84375h-17.28125c-.46875 0-.84375-.375-.84375-.84375v-14.554687c0-.46875.375-.84375.84375-.84375zm0 0" fill="#212121"/><g stroke="#212121" stroke-linecap="round"><path d="m333.331805-121.008976c8.81734 0 15.907572 7.090232 15.907572 15.816672 0 8.81734-7.090232 15.907572-15.907572 15.907572-8.72644 0-15.816672-7.090232-15.816672-15.907572 0-8.72644 7.090232-15.816672 15.816672-15.816672zm0 0" fill="url(#j)" stroke-width="3" transform="matrix(.0429729 0 0 .0429729 0 9.239163)"/><path d="m386.326744-121.008976c8.726439 0 15.816671 7.090232 15.816671 15.816672 0 8.81734-7.090232 15.907572-15.816671 15.907572-8.81734 0-15.907572-7.090232-15.907572-15.907572 0-8.72644 7.090232-15.816672 15.907572-15.816672zm0 0" fill="url(#k)" stroke-width="3" transform="matrix(.0429729 0 0 .0429729 0 9.239163)"/><path d="m439.230783-121.008976c8.726439 0 15.816671 7.090232 15.816671 15.816672 0 8.81734-7.090232 15.907572-15.816671 15.907572-8.81734 0-15.907572-7.090232-15.907572-15.907572 0-8.72644 7.090232-15.816672 15.907572-15.816672zm0 0" fill="url(#l)" stroke-width="3" transform="matrix(.0429729 0 0 .0429729 0 9.239163)"/></g><path d="m11.371094 7.902344c-.179688 0-.34375.109375-.417969.269531l-3.636719 8.1875c-.132812.300781.085938.640625.414063.640625h1.367187c.179688 0 .347656-.113281.417969-.28125l1.019531-2.449219h1.585938l.394531 2.351563c.035156.21875.222656.378906.445313.378906h1.363281c.289062 0 .503906-.261719.449219-.542969l-1.59375-8.183593c-.042969-.214844-.226563-.371094-.445313-.371094zm.226562 1.820312h.226563l.226562 3.183594h-1.136719zm0 0" fill="url(#m)"/><path d="m11.371094 7.960938c-.179688 0-.34375.105468-.417969.269531l-3.636719 8.1875c-.039062.089843-.046875.179687-.03125.269531.007813-.035156.015625-.070312.03125-.101562l3.636719-8.1875c.074219-.164063.238281-.269532.417969-.269532h1.363281c.21875 0 .402344.15625.445313.367188l1.59375 8.1875v.003906c.007812-.054688.011718-.113281 0-.171875l-1.59375-8.1875c-.042969-.214844-.226563-.367187-.445313-.367187zm-.417969 5-.039063.171874h1.136719l-.011719-.171874zm0 0" fill="#fbfbfb"/><path d="m11.597656 9.785156-.683594 3.183594h.0625l.621094-2.898438h.226563l.207031 2.898438h.019531l-.226562-3.183594zm-1.0625 4.546875-1.019531 2.449219c-.070313.171875-.238281.28125-.417969.28125h-1.367187c-.207031 0-.371094-.136719-.429688-.3125-.097656.289062.117188.59375.429688.59375h1.367187c.179688 0 .347656-.109375.417969-.277344l1.019531-2.449218h1.585938l.394531 2.347656c.035156.21875.222656.378906.445313.378906h1.363281c.289062 0 .503906-.257812.449219-.539062l-.011719-.0625c-.058594.183593-.226563.320312-.4375.320312h-1.363281c-.222657 0-.410157-.160156-.445313-.378906l-.394531-2.351563zm0 0" fill-opacity=".235294"/><path d="m1000.104937 695.023115c-15.803788 0-30.233334 9.619697-36.760985 23.705682l-319.854929 720.103039c-11.68106 26.454167 7.558334 56.34394 36.417425 56.34394h120.246214c15.803788 0 30.576894-9.963257 36.760985-24.736364l89.669319-215.412502h139.485608l34.699622 206.823487c3.092045 19.239394 19.582954 33.325379 39.165909 33.325379h119.902653c25.423485 0 44.319319-23.01856 39.50947-47.754924l-140.172729-719.759479c-3.779166-18.895834-19.926515-32.638258-39.165909-32.638258zm19.926515 160.099244h19.926516l19.926515 280.001898h-99.976138zm0 0" fill="none" stroke="#212121" stroke-linecap="round" stroke-linejoin="round" stroke-width="11.338583" transform="scale(.0113699)"/></svg>

<?xml version="1.0" encoding="UTF-8"?>
<svg xmlns="http://www.w3.org/2000/svg" xmlns:xlink="http://www.w3.org/1999/xlink" width="22pt" height="22pt" viewBox="0 0 22 22" version="1.1">
<defs>
<linearGradient id="linear0" gradientUnits="userSpaceOnUse" x1="254" y1="233.5" x2="254" y2="254.66667" gradientTransform="matrix(0.0429729,0,0,0.0429729,-0.00000171891,9.239163)">
<stop offset="0" style="stop-color:rgb(0%,0%,0%);stop-opacity:0.27451;"/>
<stop offset="1" style="stop-color:rgb(0%,0%,0%);stop-opacity:0;"/>
</linearGradient>
<radialGradient id="radial0" gradientUnits="userSpaceOnUse" cx="450.90894" cy="189.57936" fx="450.90894" fy="189.57936" r="21.166656" gradientTransform="matrix(0.000000119742,-0.0537161,-0.0966889,-0.0000000698078,36.749413,43.721792)">
<stop offset="0" style="stop-color:rgb(0%,0%,0%);stop-opacity:0.313725;"/>
<stop offset="0.222222" style="stop-color:rgb(0%,0%,0%);stop-opacity:0.27451;"/>
<stop offset="1" style="stop-color:rgb(0%,0%,0%);stop-opacity:0;"/>
</radialGradient>
<radialGradient id="radial1" gradientUnits="userSpaceOnUse" cx="450.90894" cy="189.57936" fx="450.90894" fy="189.57936" r="21.166656" gradientTransform="matrix(-0.000000119742,0.0537161,0.0966889,0.0000000698078,-14.919203,-5.175142)">
<stop offset="0" style="stop-color:rgb(0%,0%,0%);stop-opacity:0.313725;"/>
<stop offset="0.222222" style="stop-color:rgb(0%,0%,0%);stop-opacity:0.27451;"/>
<stop offset="1" style="stop-color:rgb(0%,0%,0%);stop-opacity:0;"/>
</radialGradient>
<radialGradient id="radial2" gradientUnits="userSpaceOnUse" cx="450.90894" cy="189.57936" fx="450.90894" fy="189.57936" r="21.166656" gradientTransform="matrix(-0.000000119742,-0.0537161,0.0966889,-0.0000000698078,-14.919203,43.721792)">
<stop offset="0" style="stop-color:rgb(0%,0%,0%);stop-opacity:0.313725;"/>
<stop offset="0.222222" style="stop-color:rgb(0%,0%,0%);stop-opacity:0.27451;"/>
<stop offset="1" style="stop-color:rgb(0%,0%,0%);stop-opacity:0;"/>
</radialGradient>
<radialGradient id="radial3" gradientUnits="userSpaceOnUse" cx="450.90894" cy="189.57936" fx="450.90894" fy="189.57936" r="21.166656" gradientTransform="matrix(0.000000119742,0.0537161,-0.0966889,0.0000000698078,36.749411,-5.175143)">
<stop offset="0" style="stop-color:rgb(0%,0%,0%);stop-opacity:0.313725;"/>
<stop offset="0.222222" style="stop-color:rgb(0%,0%,0%);stop-opacity:0.27451;"/>
<stop offset="1" style="stop-color:rgb(0%,0%,0%);stop-opacity:0;"/>
</radialGradient>
<linearGradient id="linear1" gradientUnits="userSpaceOnUse" x1="306.91666" y1="-25.791676" x2="305.95456" y2="-135.32916" gradientTransform="matrix(0.0518029,0,0,0.149471,-4.024634,23.128427)">
<stop offset="0" style="stop-color:rgb(49.411765%,34.117647%,76.078431%);stop-opacity:1;"/>
<stop offset="1" style="stop-color:rgb(58.431373%,45.882353%,80.392157%);stop-opacity:1;"/>
</linearGradient>
<linearGradient id="linear2" gradientUnits="userSpaceOnUse" x1="306.91666" y1="-25.791676" x2="305.95456" y2="-135.32916" gradientTransform="matrix(4.556143,0,0,13.146184,-353.97266,2034.1802)">
<stop offset="0" style="stop-color:rgb(49.411765%,34.117647%,76.078431%);stop-opacity:1;"/>
<stop offset="1" style="stop-color:rgb(58.431373%,45.882353%,80.392157%);stop-opacity:1;"/>
</linearGradient>
<linearGradient id="linear3" gradientUnits="userSpaceOnUse" x1="349.25" y1="-158.08333" x2="349.25" y2="-115.75" gradientTransform="matrix(0.749999,0,0,0.749999,71.437764,-2.479259)">
<stop offset="0" style="stop-color:rgb(40%,73.333333%,41.568627%);stop-opacity:1;"/>
<stop offset="1" style="stop-color:rgb(50.588235%,78.039216%,51.764706%);stop-opacity:1;"/>
</linearGradient>
<linearGradient id="linear4" gradientUnits="userSpaceOnUse" x1="349.25" y1="-158.08333" x2="349.25" y2="-115.75" gradientTransform="matrix(0.750001,0,0,0.750001,124.35366,-2.47902)">
<stop offset="0" style="stop-color:rgb(100%,83.529412%,30.980392%);stop-opacity:1;"/>
<stop offset="1" style="stop-color:rgb(100%,87.843137%,50.980392%);stop-opacity:1;"/>
</linearGradient>
<linearGradient id="linear5" gradientUnits="userSpaceOnUse" x1="349.25" y1="-158.08333" x2="349.25" y2="-115.75" gradientTransform="matrix(0.75,0,0,0.75,177.2708,-2.479186)">
<stop offset="0" style="stop-color:rgb(89.803922%,45.098039%,45.098039%);stop-opacity:1;"/>
<stop offset="1" style="stop-color:rgb(93.72549%,60.392157%,60.392157%);stop-opacity:1;"/>
</linearGradient>
<linearGradient id="linear6" gradientUnits="userSpaceOnUse" x1="254" y1="180.58334" x2="254" y2="-31.083334" gradientTransform="matrix(0.0429729,0,0,0.0429729,0,9.239163)">
<stop offset="0" style="stop-color:rgb(74.117647%,74.117647%,74.117647%);stop-opacity:1;"/>
<stop offset="1" style="stop-color:rgb(87.843137%,87.843137%,87.843137%);stop-opacity:1;"/>
</linearGradient>
</defs>
<g id="surface1">
<path style=" stroke:none;fill-rule:nonzero;fill:url(#linear0);" d="M 3.183594 19.273438 L 18.648438 19.273438 L 18.648438 20.183594 L 3.183594 20.183594 Z M 3.183594 19.273438 "/>
<path style=" stroke:none;fill-rule:nonzero;fill:url(#radial0);" d="M 18.648438 19.273438 L 20.464844 19.273438 L 20.464844 18.363281 L 18.648438 18.363281 Z M 18.648438 19.273438 "/>
<path style=" stroke:none;fill-rule:nonzero;fill:url(#radial1);" d="M 3.183594 19.273438 L 1.363281 19.273438 L 1.363281 20.183594 L 3.183594 20.183594 Z M 3.183594 19.273438 "/>
<path style=" stroke:none;fill-rule:nonzero;fill:url(#radial2);" d="M 3.183594 19.273438 L 1.363281 19.273438 L 1.363281 18.363281 L 3.183594 18.363281 Z M 3.183594 19.273438 "/>
<path style=" stroke:none;fill-rule:nonzero;fill:url(#radial3);" d="M 18.648438 19.273438 L 20.464844 19.273438 L 20.464844 20.183594 L 18.648438 20.183594 Z M 18.648438 19.273438 "/>
<path style=" stroke:none;fill-rule:nonzero;fill:url(#linear1);" d="M 2.273438 2.902344 L 19.554688 2.902344 C 20.058594 2.902344 20.464844 3.308594 20.464844 3.808594 L 20.464844 18.363281 C 20.464844 18.867188 20.058594 19.273438 19.554688 19.273438 L 2.273438 19.273438 C 1.773438 19.273438 1.363281 18.867188 1.363281 18.363281 L 1.363281 3.808594 C 1.363281 3.308594 1.773438 2.902344 2.273438 2.902344 Z M 2.273438 2.902344 "/>
<path style=" stroke:none;fill-rule:nonzero;fill:rgb(3.921569%,5.098039%,5.490196%);fill-opacity:0.235294;" d="M 1.363281 6.539062 L 20.464844 6.539062 L 20.464844 6.992188 L 1.363281 6.992188 Z M 1.363281 6.539062 "/>
<path style=" stroke:none;fill-rule:nonzero;fill:rgb(0%,0%,0%);fill-opacity:0.235294;" d="M 2.273438 19.28125 C 1.769531 19.28125 1.363281 18.875 1.363281 18.371094 L 1.363281 18.136719 C 1.363281 18.640625 1.769531 19.046875 2.273438 19.046875 L 19.554688 19.046875 C 20.058594 19.046875 20.464844 18.640625 20.464844 18.136719 L 20.464844 18.371094 C 20.464844 18.875 20.058594 19.28125 19.554688 19.28125 Z M 2.273438 19.28125 "/>
<path style="fill-rule:nonzero;fill:url(#linear2);stroke-width:11.338583;stroke-linecap:round;stroke-linejoin:miter;stroke:rgb(12.941176%,12.941176%,12.941176%);stroke-opacity:1;stroke-miterlimit:4;" d="M 199.952275 255.265534 C 155.632957 255.265534 119.902653 290.652276 119.902653 334.971595 L 119.902653 575.120462 L 1799.914038 575.120462 L 1799.914038 334.971595 C 1799.914038 290.652276 1764.183734 255.265534 1719.864416 255.265534 Z M 199.952275 255.265534 " transform="matrix(0.0113699,0,0,0.0113699,0,0)"/>
<path style=" stroke:none;fill-rule:nonzero;fill:rgb(100%,100%,100%);fill-opacity:0.392157;" d="M 2.273438 2.953125 C 1.769531 2.953125 1.363281 3.359375 1.363281 3.863281 L 1.363281 4.097656 C 1.363281 3.59375 1.769531 3.191406 2.273438 3.191406 L 19.554688 3.191406 C 20.058594 3.191406 20.464844 3.59375 20.464844 4.097656 L 20.464844 3.863281 C 20.464844 3.359375 20.058594 2.953125 19.554688 2.953125 Z M 2.273438 2.953125 "/>
<path style=" stroke:none;fill-rule:nonzero;fill:rgb(12.941176%,12.941176%,12.941176%);fill-opacity:1;" d="M 2.273438 2.835938 C 1.734375 2.835938 1.300781 3.273438 1.300781 3.808594 L 1.300781 18.363281 C 1.300781 18.902344 1.734375 19.335938 2.273438 19.335938 L 19.554688 19.335938 C 20.09375 19.335938 20.53125 18.902344 20.53125 18.363281 L 20.53125 3.808594 C 20.53125 3.273438 20.09375 2.835938 19.554688 2.835938 Z M 2.273438 2.964844 L 19.554688 2.964844 C 20.027344 2.964844 20.402344 3.339844 20.402344 3.808594 L 20.402344 18.363281 C 20.402344 18.832031 20.027344 19.207031 19.554688 19.207031 L 2.273438 19.207031 C 1.804688 19.207031 1.429688 18.832031 1.429688 18.363281 L 1.429688 3.808594 C 1.429688 3.339844 1.804688 2.964844 2.273438 2.964844 Z M 2.273438 2.964844 "/>
<path style="fill-rule:nonzero;fill:url(#linear3);stroke-width:3;stroke-linecap:round;stroke-linejoin:miter;stroke:rgb(12.941176%,12.941176%,12.941176%);stroke-opacity:1;stroke-miterlimit:4;" d="M 333.331805 -121.008976 C 342.149145 -121.008976 349.239377 -113.918744 349.239377 -105.192304 C 349.239377 -96.374964 342.149145 -89.284732 333.331805 -89.284732 C 324.605365 -89.284732 317.515133 -96.374964 317.515133 -105.192304 C 317.515133 -113.918744 324.605365 -121.008976 333.331805 -121.008976 Z M 333.331805 -121.008976 " transform="matrix(0.0429729,0,0,0.0429729,0,9.239163)"/>
<path style="fill-rule:nonzero;fill:url(#linear4);stroke-width:3;stroke-linecap:round;stroke-linejoin:miter;stroke:rgb(12.941176%,12.941176%,12.941176%);stroke-opacity:1;stroke-miterlimit:4;" d="M 386.326744 -121.008976 C 395.053183 -121.008976 402.143415 -113.918744 402.143415 -105.192304 C 402.143415 -96.374964 395.053183 -89.284732 386.326744 -89.284732 C 377.509404 -89.284732 370.419172 -96.374964 370.419172 -105.192304 C 370.419172 -113.918744 377.509404 -121.008976 386.326744 -121.008976 Z M 386.326744 -121.008976 " transform="matrix(0.0429729,0,0,0.0429729,0,9.239163)"/>
<path style="fill-rule:nonzero;fill:url(#linear5);stroke-width:3;stroke-linecap:round;stroke-linejoin:miter;stroke:rgb(12.941176%,12.941176%,12.941176%);stroke-opacity:1;stroke-miterlimit:4;" d="M 439.230783 -121.008976 C 447.957222 -121.008976 455.047454 -113.918744 455.047454 -105.192304 C 455.047454 -96.374964 447.957222 -89.284732 439.230783 -89.284732 C 430.413443 -89.284732 423.323211 -96.374964 423.323211 -105.192304 C 423.323211 -113.918744 430.413443 -121.008976 439.230783 -121.008976 Z M 439.230783 -121.008976 " transform="matrix(0.0429729,0,0,0.0429729,0,9.239163)"/>
<path style=" stroke:none;fill-rule:nonzero;fill:url(#linear6);" d="M 11.371094 7.902344 C 11.191406 7.902344 11.027344 8.011719 10.953125 8.171875 L 7.316406 16.359375 C 7.183594 16.660156 7.402344 17 7.730469 17 L 9.097656 17 C 9.277344 17 9.445312 16.886719 9.515625 16.71875 L 10.535156 14.269531 L 12.121094 14.269531 L 12.515625 16.621094 C 12.550781 16.839844 12.738281 17 12.960938 17 L 14.324219 17 C 14.613281 17 14.828125 16.738281 14.773438 16.457031 L 13.179688 8.273438 C 13.136719 8.058594 12.953125 7.902344 12.734375 7.902344 Z M 11.597656 9.722656 L 11.824219 9.722656 L 12.050781 12.90625 L 10.914062 12.90625 Z M 11.597656 9.722656 "/>
<path style=" stroke:none;fill-rule:nonzero;fill:rgb(98.431373%,98.431373%,98.431373%);fill-opacity:1;" d="M 11.371094 7.960938 C 11.191406 7.960938 11.027344 8.066406 10.953125 8.230469 L 7.316406 16.417969 C 7.277344 16.507812 7.269531 16.597656 7.285156 16.6875 C 7.292969 16.652344 7.300781 16.617188 7.316406 16.585938 L 10.953125 8.398438 C 11.027344 8.234375 11.191406 8.128906 11.371094 8.128906 L 12.734375 8.128906 C 12.953125 8.128906 13.136719 8.285156 13.179688 8.496094 L 14.773438 16.683594 C 14.773438 16.683594 14.773438 16.683594 14.773438 16.6875 C 14.78125 16.632812 14.785156 16.574219 14.773438 16.515625 L 13.179688 8.328125 C 13.136719 8.113281 12.953125 7.960938 12.734375 7.960938 Z M 10.953125 12.960938 L 10.914062 13.132812 L 12.050781 13.132812 L 12.039062 12.960938 Z M 10.953125 12.960938 "/>
<path style=" stroke:none;fill-rule:nonzero;fill:rgb(0%,0%,0%);fill-opacity:0.235294;" d="M 11.597656 9.785156 L 10.914062 12.96875 L 10.976562 12.96875 L 11.597656 10.070312 L 11.824219 10.070312 L 12.03125 12.96875 L 12.050781 12.96875 L 11.824219 9.785156 Z M 10.535156 14.332031 L 9.515625 16.78125 C 9.445312 16.953125 9.277344 17.0625 9.097656 17.0625 L 7.730469 17.0625 C 7.523438 17.0625 7.359375 16.925781 7.300781 16.75 C 7.203125 17.039062 7.417969 17.34375 7.730469 17.34375 L 9.097656 17.34375 C 9.277344 17.34375 9.445312 17.234375 9.515625 17.066406 L 10.535156 14.617188 L 12.121094 14.617188 L 12.515625 16.964844 C 12.550781 17.183594 12.738281 17.34375 12.960938 17.34375 L 14.324219 17.34375 C 14.613281 17.34375 14.828125 17.085938 14.773438 16.804688 L 14.761719 16.742188 C 14.703125 16.925781 14.535156 17.0625 14.324219 17.0625 L 12.960938 17.0625 C 12.738281 17.0625 12.550781 16.902344 12.515625 16.683594 L 12.121094 14.332031 Z M 10.535156 14.332031 "/>
<path style="fill:none;stroke-width:11.338583;stroke-linecap:round;stroke-linejoin:round;stroke:rgb(12.941176%,12.941176%,12.941176%);stroke-opacity:1;stroke-miterlimit:4;" d="M 1000.104937 695.023115 C 984.301149 695.023115 969.871603 704.642812 963.343952 718.728797 L 643.489023 1438.831836 C 631.807963 1465.286003 651.047357 1495.175776 679.906448 1495.175776 L 800.152662 1495.175776 C 815.95645 1495.175776 830.729556 1485.212519 836.913647 1470.439412 L 926.582966 1255.02691 L 1066.068574 1255.02691 L 1100.768196 1461.850397 C 1103.860241 1481.089791 1120.35115 1495.175776 1139.934105 1495.175776 L 1259.836758 1495.175776 C 1285.260243 1495.175776 1304.156077 1472.157216 1299.346228 1447.420852 L 1159.173499 727.661373 C 1155.394333 708.765539 1139.246984 695.023115 1120.00759 695.023115 Z M 1020.031452 855.122359 L 1039.957968 855.122359 L 1059.884483 1135.124257 L 959.908345 1135.124257 Z M 1020.031452 855.122359 " transform="matrix(0.0113699,0,0,0.0113699,0,0)"/>
</g>
</svg>
